assets/Woman guard/Light/Flat/woman_guard_flat_light.svg

<svg width="32" height="32" viewBox="0 0 32 32" fill="none" xmlns="http://www.w3.org/2000/svg">
<path d="M23.1767 16.6252C23.3824 16.195 23.5 15.7158 23.5 15.1976C23.5 14.5229 23.2943 13.9068 22.9513 13.3788C22.5986 12.8508 22.4223 12.2445 22.4223 11.6089V11.5991C22.4223 9.78037 20.9526 8.31361 19.1303 8.31361C18.954 8.31361 18.7776 8.22561 18.6796 8.08871C18.082 7.25755 17.1022 6.70996 16.0049 6.70996C14.8978 6.70996 13.9278 7.25755 13.3302 8.08871C13.2126 8.24516 13.046 8.32339 12.8697 8.32339C11.0474 8.32339 9.57773 9.79014 9.57773 11.6089V11.6187C9.57773 12.2445 9.40137 12.8605 9.04866 13.3886C8.70575 13.9068 8.5 14.5326 8.5 15.2074C8.5 15.7158 8.61757 16.2047 8.82332 16.635C8.8919 16.7817 8.8919 16.9479 8.82332 17.0946C8.61757 17.515 8.5 17.9942 8.5 18.5027C8.5 20.2725 9.94024 21.71 11.7136 21.71H20.2864C22.0598 21.71 23.5 20.2725 23.5 18.5027C23.5 18.004 23.3824 17.5248 23.1767 17.0946C23.1081 16.9381 23.1081 16.7719 23.1767 16.6252Z" fill="#212121"/>
<path d="M22.98 30L23.5 27L22.98 22.81C21.06 21.03 18.5 19.98 15.76 19.98C13 19.98 10.3519 21.1163 8.42188 22.9062L8.1875 26.4531L7.95312 30H22.98Z" fill="#F92F60"/>
<path d="M13 15.1899C13 16.1564 12.2165 16.9399 11.25 16.9399C10.2835 16.9399 9.5 16.1564 9.5 15.1899C9.5 14.2234 10.2835 13.4399 11.25 13.4399C12.2165 13.4399 13 14.2234 13 15.1899Z" fill="#F4C6AD"/>
<path d="M22.5 15.1899C22.5 16.1564 21.7165 16.9399 20.75 16.9399C19.7835 16.9399 19 16.1564 19 15.1899C19 14.2234 19.7835 13.4399 20.75 13.4399C21.7165 13.4399 22.5 14.2234 22.5 15.1899Z" fill="#F4C6AD"/>
<path d="M8.61775 22.5655L9.39324 23.3372C9.55438 23.486 9.81623 23.5046 9.99752 23.3651C10.7048 22.806 11.4904 22.3537 12.3289 22.0174C12.9456 23.475 14.3623 24.5 16.0053 24.5C17.6622 24.5 19.0791 23.4678 19.6852 22.002C20.5238 22.3344 21.3111 22.7826 22.0226 23.3372C22.1938 23.4767 22.4557 23.4674 22.6168 23.3093L23.3822 22.5376C23.5535 22.3702 23.5333 22.1099 23.352 21.9611C21.3076 20.3433 18.7192 19.46 16.0201 19.46C13.3009 19.46 10.7025 20.3526 8.64797 21.989C8.46668 22.1378 8.44654 22.3981 8.61775 22.5655Z" fill="#321B41"/>
<path d="M16.0047 23.5C14.8983 23.5 14 22.688 14 21.688V20.5H17.9999V21.688C18.0094 22.688 17.1111 23.5 16.0047 23.5Z" fill="#F4C6AD"/>
<path d="M10 22.5C10 22.7761 9.77614 23 9.5 23C9.22386 23 9 22.7761 9 22.5C9 22.2239 9.22386 22 9.5 22C9.77614 22 10 22.2239 10 22.5Z" fill="#FCD53F"/>
<path d="M18 25.5C18 25.7761 17.7761 26 17.5 26C17.2239 26 17 25.7761 17 25.5C17 25.2239 17.2239 25 17.5 25C17.7761 25 18 25.2239 18 25.5Z" fill="#FCD53F"/>
<path d="M22.5 23C22.7761 23 23 22.7761 23 22.5C23 22.2239 22.7761 22 22.5 22C22.2239 22 22 22.2239 22 22.5C22 22.7761 22.2239 23 22.5 23Z" fill="#FCD53F"/>
<path d="M18 28.5C18 28.7761 17.7761 29 17.5 29C17.2239 29 17 28.7761 17 28.5C17 28.2239 17.2239 28 17.5 28C17.7761 28 18 28.2239 18 28.5Z" fill="#FCD53F"/>
<path d="M20.0744 12.7904H16.7586C15.4423 12.7904 14.2165 12.1673 13.483 11.1159C13.3524 10.9407 13.0811 10.9699 13.0007 11.1646L12.9203 11.3593C12.6892 11.9142 12.2371 12.3523 11.6844 12.5957C11.6543 12.6054 11.6141 12.6249 11.584 12.6346C11.3428 12.7515 10.7701 13.1214 10.75 14.0755L10.8907 17.2686C11.0112 20.1016 13.262 22 16.005 22C18.738 22 20.9988 20.1016 21.1194 17.2686L21.25 14.2312C21.2299 12.8877 20.2553 12.8001 20.0744 12.7904Z" fill="#FFD7C2"/>
<path d="M13.3355 13.9297C13.9058 13.9297 14.3777 14.3397 14.6727 14.7897C14.3899 14.8788 14.1135 14.9581 13.839 15.0368C13.436 15.1525 13.037 15.2669 12.6276 15.4097L12.136 14.9597C11.9393 14.7797 11.959 14.4497 12.1753 14.2897C12.4998 14.0597 12.9324 13.9297 13.3355 13.9297Z" fill="black"/>
<path d="M18.6645 13.9297C18.0942 13.9297 17.6223 14.3397 17.3273 14.7897C17.6139 14.88 17.8921 14.9602 18.1689 15.0399C18.5664 15.1545 18.9609 15.2682 19.3724 15.4097L19.864 14.9597C20.0607 14.7797 20.041 14.4497 19.8247 14.2897C19.5002 14.0597 19.0676 13.9297 18.6645 13.9297Z" fill="black"/>
<path d="M12.136 15.13C12.2835 14.51 12.8439 14.04 13.5125 14.04C14.2008 14.04 14.7809 14.54 14.9087 15.2C14.9382 15.35 14.8202 15.48 14.6727 15.48H12.4113C12.2245 15.48 12.0967 15.31 12.136 15.13Z" fill="white"/>
<path d="M19.864 15.13C19.7165 14.51 19.1561 14.04 18.4875 14.04C17.7894 14.04 17.2192 14.54 17.0815 15.2C17.052 15.35 17.17 15.48 17.3175 15.48H19.5887C19.7755 15.48 19.9033 15.31 19.864 15.13Z" fill="white"/>
<path d="M12.8046 15.2401C12.8046 14.7201 13.2176 14.3101 13.719 14.3101C14.2303 14.3101 14.6334 14.7301 14.6137 15.2401C14.6137 15.3301 14.6039 15.4101 14.5842 15.4901H12.8341C12.8145 15.4101 12.8046 15.3301 12.8046 15.2401Z" fill="#7D4533"/>
<path d="M19.1857 15.2401C19.1857 14.7201 18.7727 14.3101 18.2713 14.3101C17.7698 14.3101 17.3667 14.7301 17.3766 15.2401C17.3766 15.3301 17.3864 15.4101 17.406 15.4901H19.1562C19.1758 15.4101 19.1857 15.3301 19.1857 15.2401Z" fill="#7D4533"/>
<path d="M13.7189 14.71C14.004 14.71 14.24 14.95 14.24 15.24C14.24 15.32 14.2203 15.41 14.181 15.49H13.2568C13.2175 15.41 13.1978 15.33 13.1978 15.24C13.1978 14.95 13.4338 14.71 13.7189 14.71Z" fill="black"/>
<path d="M18.2811 14.71C17.9959 14.71 17.76 14.95 17.76 15.24C17.76 15.32 17.7796 15.41 17.819 15.49H18.7432C18.7825 15.41 18.8022 15.33 18.8022 15.24C18.8022 14.95 18.5662 14.71 18.2811 14.71Z" fill="black"/>
<path d="M13.5715 14.87C13.5715 14.9583 13.5011 15.03 13.4142 15.03C13.3273 15.03 13.2569 14.9583 13.2569 14.87C13.2569 14.7816 13.3273 14.71 13.4142 14.71C13.5011 14.71 13.5715 14.7816 13.5715 14.87Z" fill="white"/>
<path d="M18.1238 14.87C18.1238 14.9583 18.0533 15.03 17.9665 15.03C17.8796 15.03 17.8091 14.9583 17.8091 14.87C17.8091 14.7816 17.8796 14.71 17.9665 14.71C18.0533 14.71 18.1238 14.7816 18.1238 14.87Z" fill="white"/>
<path d="M15.5944 14.5684L15.0279 16.4631C14.9086 16.8566 15.1869 17.25 15.5845 17.25H16.4194C16.8071 17.25 17.0854 16.8566 16.976 16.4631L16.4095 14.5684C16.2902 14.1439 15.7236 14.1439 15.5944 14.5684Z" fill="#E5AF93"/>
<path d="M16.0077 18.1235C15.4554 18.1235 14.9317 17.984 14.4938 17.7448C14.3414 17.665 14.1891 17.8444 14.2748 17.984C14.6366 18.572 15.2745 18.9707 15.9982 18.9707C16.7218 18.9707 17.3597 18.582 17.7216 17.984C17.8168 17.8345 17.6549 17.655 17.5026 17.7448C17.0836 17.984 16.5599 18.1235 16.0077 18.1235Z" fill="#990838"/>
<path d="M10.8963 11.4751L10.1036 11.5248L10.4994 17.8257C10.8 20.1446 12.7127 21.897 15.0062 21.897H17.0043C19.2978 21.897 21.2106 20.1446 21.5112 17.8257L21.8963 11.5241L21.1036 11.4758L20.7218 17.7367C20.4643 19.6749 18.8728 21.1028 17.0043 21.1028H15.0062C13.1377 21.1028 11.5461 19.6748 11.2887 17.7364L10.8963 11.4751Z" fill="#D3D3D3"/>
<path d="M16.0047 23.4999C15.8304 23.4999 15.6613 23.4798 15.5 23.4419V29.9999H16.5V23.4441C16.3416 23.4805 16.1756 23.4999 16.0047 23.4999Z" fill="#D3D3D3"/>
<path d="M22.75 9.25777C22.75 9.06731 22.7008 8.89689 22.6222 8.7365C22.4747 8.45581 22.4747 8.10495 22.6222 7.82426C22.7008 7.6739 22.75 7.49345 22.75 7.30299C22.75 7.1025 22.691 6.902 22.5927 6.74161C22.4354 6.47095 22.4255 6.14014 22.5533 5.8394C22.6713 5.54869 22.6713 5.20786 22.514 4.90712C22.4059 4.68658 22.2289 4.52619 22.0224 4.42594C21.7373 4.2856 21.5308 4.02496 21.4718 3.70417C21.4718 3.69415 21.4718 3.69415 21.4718 3.68412C21.3735 3.25307 21.0293 2.92226 20.6065 2.85209C20.5279 2.84206 20.4492 2.83204 20.3705 2.84206C20.0657 2.86211 19.7806 2.73179 19.5741 2.50123C19.3775 2.28069 19.1021 2.15037 18.7875 2.15037C18.64 2.15037 18.5024 2.18044 18.3745 2.24059C18.0697 2.37091 17.7354 2.35086 17.4601 2.17042C17.2831 2.07017 17.0767 2 16.8702 2C16.7129 2 16.5654 2.0401 16.4277 2.10025C16.1524 2.23056 15.8476 2.23056 15.5723 2.10025C15.4346 2.0401 15.2871 2 15.1298 2C14.9135 2 14.707 2.07017 14.5399 2.18044C14.2646 2.36088 13.9204 2.38093 13.6255 2.25061C13.4976 2.19047 13.36 2.16039 13.2125 2.16039C12.8979 2.16039 12.6225 2.30074 12.4259 2.51125C12.2194 2.74182 11.9343 2.87214 11.6295 2.85209C11.5508 2.85209 11.4721 2.85209 11.3935 2.86211C10.9707 2.93228 10.6167 3.26309 10.5282 3.69415C10.5282 3.70417 10.5282 3.70417 10.5282 3.7142C10.4594 4.03498 10.2431 4.29562 9.95794 4.43597C9.72196 4.55626 9.53514 4.74673 9.42698 5.01739C9.31883 5.29808 9.32866 5.59881 9.43682 5.85945C9.56464 6.15016 9.54497 6.48097 9.38765 6.76166C9.29916 6.92205 9.25 7.1025 9.25 7.30299C9.25 7.49345 9.29916 7.66387 9.37782 7.82426C9.52531 8.10495 9.52531 8.45581 9.37782 8.7365C9.28933 8.88687 9.25 9.06731 9.25 9.25777C9.25 9.44824 9.29916 9.61866 9.37782 9.77905C9.52531 10.0597 9.52531 10.4106 9.37782 10.6913C9.28933 10.8417 9.25 11.0221 9.25 11.2126C9.25 11.403 9.29916 11.5734 9.37782 11.7338C9.52531 12.0145 9.52531 12.3654 9.37782 12.6461C9.29916 12.7964 9.25 12.9769 9.25 13.1673C9.25 13.7688 9.72196 14.25 10.3119 14.25C10.3217 14.25 10.3414 14.25 10.3512 14.25C10.3611 14.25 10.3611 14.25 10.3709 14.25H21.6094C21.6193 14.25 21.6291 14.25 21.6389 14.25C21.6586 14.25 21.6684 14.25 21.6881 14.25C22.278 14.25 22.75 13.7688 22.75 13.1673C22.75 12.9769 22.7008 12.8065 22.6222 12.6461C22.4747 12.3654 22.4747 12.0145 22.6222 11.7338C22.7008 11.5835 22.75 11.403 22.75 11.2126C22.75 11.0221 22.7008 10.8517 22.6222 10.6913C22.4747 10.4106 22.4747 10.0597 22.6222 9.77905C22.7008 9.61866 22.75 9.44824 22.75 9.25777Z" fill="#321B41"/>
<path d="M8.49 29.9998V22.8398C7.19 24.0598 6.18 25.6098 5.62 27.3898L5.59 27.4698C5.33 28.2998 5.13 29.1498 5 29.9998H8.49Z" fill="#CA0B4A"/>
<path d="M26.48 30.0001C26.3504 29.1301 26.1509 28.2801 25.8917 27.4401C25.3233 25.6201 24.3062 24.0401 22.98 22.8101V30.0001H26.48Z" fill="#CA0B4A"/>
</svg>

<svg xmlns="http://www.w3.org/2000/svg" width="32" height="32" fill="none"><path fill="#212121" d="M23.177 16.625c.205-.43.323-.91.323-1.427 0-.675-.206-1.291-.549-1.82a3.154 3.154 0 0 1-.529-1.77V11.6a3.283 3.283 0 0 0-3.292-3.285.567.567 0 0 1-.45-.225 3.3 3.3 0 0 0-2.675-1.379 3.286 3.286 0 0 0-2.675 1.379.567.567 0 0 1-.46.234 3.283 3.283 0 0 0-3.292 3.286v.01c0 .626-.177 1.242-.53 1.77a3.29 3.29 0 0 0-.225 3.246.54.54 0 0 1 0 .46 3.212 3.212 0 0 0 2.89 4.615h8.573a3.212 3.212 0 0 0 2.89-4.615.56.56 0 0 1 0-.47Z"/><path fill="#F92F60" d="m22.98 30 .52-3-.52-4.19a10.611 10.611 0 0 0-7.22-2.83c-2.76 0-5.408 1.136-7.338 2.926l-.235 3.547L7.954 30H22.98Z"/><path fill="#F4C6AD" d="M13 15.19a1.75 1.75 0 1 1-3.5 0 1.75 1.75 0 0 1 3.5 0ZM22.5 15.19a1.75 1.75 0 1 1-3.5 0 1.75 1.75 0 0 1 3.5 0Z"/><path fill="#321B41" d="m8.618 22.566.775.771a.476.476 0 0 0 .605.028 9.397 9.397 0 0 1 2.33-1.348c.618 1.458 2.034 2.483 3.677 2.483 1.657 0 3.074-1.032 3.68-2.498.839.332 1.626.78 2.338 1.335.17.14.433.13.594-.028l.765-.771a.38.38 0 0 0-.03-.577c-2.044-1.618-4.633-2.501-7.332-2.501-2.72 0-5.317.893-7.372 2.529a.38.38 0 0 0-.03.576Z"/><path fill="#F4C6AD" d="M16.005 23.5c-1.107 0-2.005-.812-2.005-1.812V20.5h4v1.188c.01 1-.889 1.812-1.995 1.812Z"/><path fill="#FCD53F" d="M10 22.5a.5.5 0 1 1-1 0 .5.5 0 0 1 1 0ZM18 25.5a.5.5 0 1 1-1 0 .5.5 0 0 1 1 0ZM22.5 23a.5.5 0 1 0 0-1 .5.5 0 0 0 0 1ZM18 28.5a.5.5 0 1 1-1 0 .5.5 0 0 1 1 0Z"/><path fill="#FFD7C2" d="M20.074 12.79H16.76c-1.317 0-2.543-.623-3.276-1.674-.13-.175-.402-.146-.482.049l-.08.194a2.36 2.36 0 0 1-1.237 1.237c-.03.01-.07.029-.1.039-.241.117-.814.486-.834 1.44l.14 3.194C11.012 20.102 13.263 22 16.006 22c2.733 0 4.994-1.898 5.114-4.731l.131-3.038c-.02-1.343-.995-1.43-1.176-1.44Z"/><path fill="#000" d="M13.335 13.93c.57 0 1.043.41 1.338.86-.283.089-.56.168-.834.247-.403.115-.802.23-1.211.373l-.492-.45a.44.44 0 0 1 .04-.67 2.07 2.07 0 0 1 1.16-.36ZM18.665 13.93c-.57 0-1.043.41-1.338.86.287.09.565.17.842.25.397.115.792.228 1.203.37l.492-.45a.44.44 0 0 0-.04-.67 2.07 2.07 0 0 0-1.16-.36Z"/><path fill="#fff" d="M12.136 15.13c.148-.62.708-1.09 1.377-1.09.688 0 1.268.5 1.396 1.16.03.15-.089.28-.236.28H12.41a.283.283 0 0 1-.275-.35ZM19.864 15.13a1.421 1.421 0 0 0-1.377-1.09c-.698 0-1.268.5-1.405 1.16-.03.15.088.28.235.28h2.272c.187 0 .314-.17.275-.35Z"/><path fill="#7D4533" d="M12.805 15.24c0-.52.413-.93.914-.93.511 0 .914.42.895.93 0 .09-.01.17-.03.25h-1.75c-.02-.08-.03-.16-.03-.25ZM19.186 15.24a.92.92 0 0 0-.915-.93.904.904 0 0 0-.894.93c0 .09.01.17.029.25h1.75c.02-.08.03-.16.03-.25Z"/><path fill="#000" d="M13.719 14.71a.53.53 0 0 1 .521.53c0 .08-.02.17-.059.25h-.924a.55.55 0 0 1-.06-.25c0-.29.237-.53.522-.53ZM18.281 14.71a.529.529 0 0 0-.521.53c0 .08.02.17.059.25h.924a.55.55 0 0 0 .06-.25.53.53 0 0 0-.522-.53Z"/><path fill="#fff" d="M13.572 14.87c0 .088-.07.16-.158.16a.159.159 0 0 1-.157-.16c0-.088.07-.16.157-.16s.158.072.158.16ZM18.124 14.87c0 .088-.07.16-.157.16a.159.159 0 0 1-.158-.16c0-.088.07-.16.157-.16s.158.072.158.16Z"/><path fill="#E5AF93" d="m15.594 14.568-.566 1.895c-.12.394.159.787.556.787h.835c.388 0 .666-.393.557-.787l-.566-1.895a.42.42 0 0 0-.816 0Z"/><path fill="#990838" d="M16.008 18.123c-.553 0-1.076-.139-1.514-.378-.153-.08-.305.1-.22.239.363.588 1 .987 1.724.987s1.362-.389 1.724-.987c.095-.15-.067-.329-.22-.24-.418.24-.942.38-1.494.38Z"/><path fill="#D3D3D3" d="m10.896 11.475-.792.05.395 6.3c.301 2.32 2.214 4.072 4.507 4.072h1.998c2.294 0 4.207-1.752 4.507-4.071l.385-6.302-.792-.048-.382 6.26c-.258 1.939-1.85 3.367-3.718 3.367h-1.998c-1.868 0-3.46-1.428-3.717-3.367l-.393-6.26ZM16.005 23.5c-.175 0-.344-.02-.505-.058V30h1v-6.556a2.21 2.21 0 0 1-.495.056Z"/><path fill="#321B41" d="M22.75 9.258c0-.19-.05-.361-.128-.521a.996.996 0 0 1 0-.913 1.094 1.094 0 0 0-.03-1.083 1.004 1.004 0 0 1-.039-.902 1.108 1.108 0 0 0-.53-1.413 1.004 1.004 0 0 1-.551-.722v-.02a1.081 1.081 0 0 0-.866-.832c-.078-.01-.157-.02-.236-.01a.98.98 0 0 1-.796-.34 1.038 1.038 0 0 0-1.2-.261.957.957 0 0 1-.914-.07c-.177-.1-.383-.171-.59-.171-.157 0-.305.04-.442.1a.985.985 0 0 1-.856 0c-.137-.06-.285-.1-.442-.1-.216 0-.423.07-.59.18-.275.18-.62.2-.914.07a.958.958 0 0 0-.413-.09c-.315 0-.59.14-.787.351a.98.98 0 0 1-.796.341c-.08 0-.158 0-.237.01-.422.07-.776.401-.865.832v.02c-.069.321-.285.582-.57.722-.236.12-.423.31-.531.581-.108.281-.098.582.01.842.128.291.108.622-.05.903-.088.16-.137.34-.137.541 0 .19.05.36.128.521a.996.996 0 0 1 0 .912c-.089.15-.128.331-.128.522 0 .19.05.36.128.521a.996.996 0 0 1 0 .912c-.089.15-.128.331-.128.522 0 .19.05.36.128.52a.996.996 0 0 1 0 .913c-.079.15-.128.33-.128.521 0 .602.472 1.083 1.062 1.083H21.689c.589 0 1.061-.481 1.061-1.083 0-.19-.05-.36-.128-.52a.996.996 0 0 1 0-.913 1.133 1.133 0 0 0 0-1.043.996.996 0 0 1 0-.912c.079-.16.128-.33.128-.521Z"/><path fill="#CA0B4A" d="M8.49 30v-7.16c-1.3 1.22-2.31 2.77-2.87 4.55l-.03.08c-.26.83-.46 1.68-.59 2.53h3.49ZM26.48 30c-.13-.87-.33-1.72-.588-2.56a10.613 10.613 0 0 0-2.912-4.63V30h3.5Z"/></svg>
